resources/svg/trophy-o.svg

<svg xmlns="http://www.w3.org/2000/svg" viewBox="0 0 15 15" fill="none"><path d="M4 14.5H11M7.5 14.5V9.5M7.5 9.5C9.70914 9.5 11.5 7.70914 11.5 5.5V1.5C11.5 0.947715 11.0523 0.5 10.5 0.5H4.5C3.94772 0.5 3.5 0.947715 3.5 1.5V5.5C3.5 7.70914 5.29086 9.5 7.5 9.5ZM3.5 2.5H2.5C1.39543 2.5 0.5 3.39543 0.5 4.5C0.5 5.60457 1.39543 6.5 2.5 6.5H3.5M11.5 2.5H12.5C13.6046 2.5 14.5 3.39543 14.5 4.5C14.5 5.60457 13.6046 6.5 12.5 6.5H11.5" stroke="black"/></svg>

<svg xmlns="http://www.w3.org/2000/svg" viewBox="0 0 15 15" fill="none"><path d="M4 14.5h7m-3.5 0v-5m0 0a4 4 0 004-4v-4a1 1 0 00-1-1h-6a1 1 0 00-1 1v4a4 4 0 004 4zm-4-7h-1a2 2 0 100 4h1m8-4h1a2 2 0 110 4h-1" stroke="currentColor"/></svg>
